ice-pop.svg

<svg fill="currentColor" viewBox="0 0 24 24"><path d="m18.15 14.96-8.2 3.69-4.1-9a3.6 3.6 0 0 0 2.3-3.29c-.01-1.36-.79-2.6-2-3.21.39-.35.85-.65 1.3-.9 2.26-1 4.92-.02 6 2.21m-.3 13.9 1.6 3.5 2.7-1.21-1.6-3.5"/></svg>

<svg  viewBox="0 0 24 24" fill="currentColor"><path  d="M18.15 14.96L9.95 18.65L5.85 9.65C7.21 9.13 8.12 7.82 8.15 6.36C8.14 5 7.36 3.76 6.15 3.15C6.54 2.8 7 2.5 7.45 2.25C9.71 1.25 12.37 2.23 13.45 4.46M13.15 18.36L14.75 21.86L17.45 20.65L15.85 17.15"/></svg>
